X:1
T:Maggie's Pancakes
R:Reel
M:4/4
L:1/8
C: Stuart Morrison
K:Bm
%%printtempo 0
Q:180
"Bm"fB B/B/B fgfe|dB B/B/B "G"GBdB|"A"cAAd AAec|Af e/c/A eAce|
"Bm"fB B/B/B fgfe|dB B/B/B "G"GBdB|"A"cABc ABce- |"F#m" efec Bcde ::
"Bm"f2 dB "G"GBdB|"A"caec "G"dB B/B/B|"Bm"f2 dB "G"GBdB|"A"caec "Bm"Bcde|
"D"fd d/d/d fgfe|"G"dB B/B/B GBdB|"A"cAdA eAAa-|1"F#m"afec Bcde:|2"F#m"afec "Bm"B4|]
